X: 30
T:Spootiskerry
T:Jane Coker's Tune
M:4/4
L:1/8
R:Polka
N:http://www.lesession.co.uk
Z:Steve Mansfield 1998-2001
K:G
DE | G2 DE GDEG | DEGA B2 A2 | G2 DE GDEG | eged B2 A2 | 
G2 DE GDEG | DEGA B2 d2 | g2 ed edBA | B2 G2 G2 :: d2 | 
g2 ed edBA | BdBG E2 DE | G2 GA BedG |1 B2 A2 A2 d2 | 
g2 ed edBA | BdBG E2 DE | G2 GA BedG | A2 G2 G2 :|2 B2 A2 A2 DE | 
G2 DE GDEG | DEGA B2 d2 | g2 ed edBA | B2 G2 G2 ||
<end>
<start>
